records/csot-t3-unknown/display-profile.ti3
CTI3
DESCRIPTOR "calsuite display profile"
ORIGINATOR "calsuite"
CREATED "Tue Sep 22 20:08:45 2026"
DEVICE_CLASS "DISPLAY"
COLOR_REP "RGB_XYZ"
NUMBER_OF_FIELDS 7
BEGIN_DATA_FORMAT
SAMPLE_ID RGB_R RGB_G RGB_B XYZ_X XYZ_Y XYZ_Z
END_DATA_FORMAT
NUMBER_OF_SETS 81
BEGIN_DATA
1 0.000000 0.000000 0.000000 0.072416 0.076210 0.113409
2 6.250000 6.250000 6.250000 0.292381 0.307963 0.362956
3 12.500000 12.500000 12.500000 1.025035 1.079901 1.188317
4 18.750000 18.750000 18.750000 2.459745 2.593341 2.833724
5 25.000000 25.000000 25.000000 4.585090 4.856379 5.332424
6 31.250000 31.250000 31.250000 7.421147 7.871902 8.628375
7 37.500000 37.500000 37.500000 11.054600 11.716344 12.844481
8 43.750000 43.750000 43.750000 15.468275 16.402676 18.002601
9 50.000000 50.000000 50.000000 20.750941 22.009252 24.162287
10 56.250000 56.250000 56.250000 26.491495 28.067329 30.842094
11 62.500000 62.500000 62.500000 33.529749 35.472361 39.075808
12 68.750000 68.750000 68.750000 41.329124 43.714210 48.132987
13 75.000000 75.000000 75.000000 50.025552 52.864512 58.224987
14 81.250000 81.250000 81.250000 59.801725 63.194071 69.539661
15 87.500000 87.500000 87.500000 70.159963 74.161584 81.619800
16 93.750000 93.750000 93.750000 81.918546 86.593395 95.284205
17 100.000000 100.000000 100.000000 94.590127 100.000000 110.040517
18 0.000000 0.000000 0.000000 0.072727 0.076419 0.114969
19 6.250000 0.000000 0.000000 0.169211 0.126205 0.117435
20 12.500000 0.000000 0.000000 0.494515 0.295147 0.130638
21 18.750000 0.000000 0.000000 1.122209 0.622641 0.156385
22 25.000000 0.000000 0.000000 2.032790 1.099326 0.200281
23 31.250000 0.000000 0.000000 3.249839 1.732578 0.249479
24 37.500000 0.000000 0.000000 4.832887 2.559916 0.323600
25 43.750000 0.000000 0.000000 6.734159 3.553770 0.410275
26 50.000000 0.000000 0.000000 9.010817 4.738435 0.500156
27 56.250000 0.000000 0.000000 11.519946 6.049474 0.610087
28 62.500000 0.000000 0.000000 14.593181 7.652771 0.749334
29 68.750000 0.000000 0.000000 17.979818 9.414497 0.876587
30 75.000000 0.000000 0.000000 21.813125 11.423652 1.072300
31 81.250000 0.000000 0.000000 26.063282 13.634636 1.232835
32 87.500000 0.000000 0.000000 30.530045 15.962676 1.407291
33 93.750000 0.000000 0.000000 35.626235 18.619922 1.629795
34 100.000000 0.000000 0.000000 41.036767 21.431234 1.822778
35 0.000000 0.000000 0.000000 0.070825 0.074637 0.112108
36 0.000000 6.250000 0.000000 0.155831 0.240653 0.140757
37 0.000000 12.500000 0.000000 0.435339 0.789612 0.231670
38 0.000000 18.750000 0.000000 0.985204 1.865731 0.412935
39 0.000000 25.000000 0.000000 1.810352 3.487378 0.679268
40 0.000000 31.250000 0.000000 2.914689 5.650452 1.045026
41 0.000000 37.500000 0.000000 4.316204 8.400191 1.503764
42 0.000000 43.750000 0.000000 6.028117 11.758882 2.065717
43 0.000000 50.000000 0.000000 8.075581 15.775713 2.735368
44 0.000000 56.250000 0.000000 10.288806 20.108019 3.467342
45 0.000000 62.500000 0.000000 12.967620 25.371016 4.329867
46 0.000000 68.750000 0.000000 15.998408 31.295877 5.330856
47 0.000000 75.000000 0.000000 19.332124 37.825293 6.421599
48 0.000000 81.250000 0.000000 23.102699 45.205115 7.639227
49 0.000000 87.500000 0.000000 27.117846 53.058019 8.933785
50 0.000000 93.750000 0.000000 31.654363 61.931092 10.380393
51 0.000000 100.000000 0.000000 36.550244 71.454178 11.925993
52 0.000000 0.000000 0.000000 0.071299 0.075125 0.112650
53 0.000000 0.000000 6.250000 0.107487 0.088573 0.328206
54 0.000000 0.000000 12.500000 0.234018 0.139990 1.050645
55 0.000000 0.000000 18.750000 0.481580 0.239078 2.470843
56 0.000000 0.000000 25.000000 0.861396 0.392269 4.644285
57 0.000000 0.000000 31.250000 1.360379 0.590484 7.509879
58 0.000000 0.000000 37.500000 1.999868 0.846822 11.175882
59 0.000000 0.000000 43.750000 2.786765 1.163600 15.676460
60 0.000000 0.000000 50.000000 3.719265 1.536107 21.035020
61 0.000000 0.000000 56.250000 4.733435 1.940426 26.864531
62 0.000000 0.000000 62.500000 5.992520 2.448616 34.072018
63 0.000000 0.000000 68.750000 7.381175 3.007150 42.021884
64 0.000000 0.000000 75.000000 8.924952 3.630763 50.863818
65 0.000000 0.000000 81.250000 10.658259 4.330181 60.797275
66 0.000000 0.000000 87.500000 12.492895 5.070492 71.351531
67 0.000000 0.000000 93.750000 14.576878 5.916425 83.312185
68 0.000000 0.000000 100.000000 16.826614 6.844448 96.187854
69 100.000000 0.000000 0.000000 41.046102 21.432782 1.820440
70 0.000000 100.000000 0.000000 36.545629 71.436050 11.914318
71 0.000000 0.000000 100.000000 16.817426 6.838483 96.175589
72 100.000000 100.000000 100.000000 94.602677 99.949259 110.061348
73 0.000000 0.000000 0.000000 0.072003 0.075700 0.114072
74 100.000000 0.000000 0.000000 41.057413 21.441481 1.844008
75 0.000000 100.000000 0.000000 36.535100 71.413463 11.905382
76 0.000000 0.000000 100.000000 16.823175 6.845492 96.187296
77 0.000000 100.000000 100.000000 53.360805 78.320183 108.040499
78 100.000000 0.000000 100.000000 57.888923 28.252295 98.188444
79 100.000000 100.000000 0.000000 77.728263 93.035525 13.693082
80 100.000000 100.000000 100.000000 94.610383 99.948674 110.077650
81 0.000000 0.000000 0.000000 0.071239 0.074818 0.113214
END_DATA
