records/csot-t3-unknown/display-profile.cal
CAL

DESCRIPTOR "calsuite VCGT correction curve"
ORIGINATOR "calsuite"
CREATED "Tue Sep 22 20:08:47 2026"
DEVICE_CLASS "DISPLAY"
COLOR_REP "RGB"

NUMBER_OF_FIELDS 4
BEGIN_DATA_FORMAT
RGB_I RGB_R RGB_G RGB_B
END_DATA_FORMAT

NUMBER_OF_SETS 256
BEGIN_DATA
0.000000 0.000000 0.000000 0.000000
0.003922 0.000000 0.000137 0.000167
0.007843 0.000000 0.000631 0.000767
0.011765 0.000623 0.001539 0.001871
0.015686 0.001971 0.002899 0.003523
0.019608 0.003792 0.004736 0.005755
0.023529 0.006109 0.007073 0.008595
0.027451 0.008940 0.009929 0.012066
0.031373 0.012301 0.013320 0.016186
0.035294 0.016206 0.017260 0.020973
0.039216 0.020669 0.021762 0.026444
0.043137 0.025702 0.026839 0.032613
0.047059 0.031315 0.032501 0.039494
0.050980 0.037518 0.038759 0.047098
0.054902 0.044322 0.045623 0.055439
0.058824 0.051735 0.053101 0.063007
0.062745 0.059765 0.061202 0.065472
0.066667 0.064245 0.064734 0.068128
0.070588 0.066982 0.067549 0.070979
0.074510 0.069909 0.070559 0.074026
0.078431 0.073026 0.073766 0.077273
0.082353 0.076335 0.077170 0.080719
0.086275 0.079840 0.080775 0.084369
0.090196 0.083541 0.084582 0.088223
0.094118 0.087440 0.088593 0.092284
0.098039 0.091539 0.092809 0.096553
0.101961 0.095840 0.097233 0.101032
0.105882 0.100344 0.101866 0.105722
0.109804 0.105052 0.106709 0.110626
0.113725 0.109967 0.111765 0.115744
0.117647 0.115090 0.117034 0.121079
0.121569 0.120421 0.122518 0.125847
0.125490 0.125497 0.126642 0.128841
0.129412 0.128465 0.129661 0.131951
0.133333 0.131543 0.132792 0.135175
0.137255 0.134732 0.136035 0.138516
0.141176 0.138032 0.139392 0.141972
0.145098 0.141443 0.142862 0.145546
0.149020 0.144968 0.146447 0.149238
0.152941 0.148605 0.150147 0.153048
0.156863 0.152356 0.153962 0.156978
0.160784 0.156221 0.157894 0.161027
0.164706 0.160201 0.161942 0.165196
0.168627 0.164296 0.166108 0.169486
0.172549 0.168508 0.170392 0.173898
0.176471 0.172835 0.174794 0.178431
0.180392 0.177280 0.179315 0.183087
0.184314 0.181842 0.183955 0.187737
0.188235 0.186522 0.188307 0.190908
0.192157 0.190125 0.191546 0.194160
0.196078 0.193503 0.194865 0.197492
0.200000 0.196964 0.198265 0.200905
0.203922 0.200507 0.201746 0.204399
0.207843 0.204133 0.205308 0.207975
0.211765 0.207841 0.208952 0.211633
0.215686 0.211633 0.212678 0.215373
0.219608 0.215509 0.216486 0.219195
0.223529 0.219469 0.220376 0.223100
0.227451 0.223512 0.224349 0.227089
0.231373 0.227641 0.228405 0.231160
0.235294 0.231854 0.232545 0.235316
0.239216 0.236152 0.236768 0.239555
0.243137 0.240536 0.241075 0.243879
0.247059 0.245006 0.245466 0.248287
0.250980 0.249561 0.249942 0.252148
0.254902 0.253163 0.253375 0.255686
0.258824 0.256723 0.256858 0.259290
0.262745 0.260347 0.260404 0.262960
0.266667 0.264037 0.264015 0.266697
0.270588 0.267792 0.267690 0.270499
0.274510 0.271614 0.271429 0.274369
0.278431 0.275501 0.275233 0.278306
0.282353 0.279455 0.279102 0.282309
0.286275 0.283475 0.283035 0.286380
0.290196 0.287562 0.287035 0.290519
0.294118 0.291716 0.291099 0.294725
0.298039 0.295937 0.295229 0.298999
0.301961 0.300225 0.299425 0.303340
0.305882 0.304580 0.303686 0.307751
0.309804 0.309003 0.308014 0.312229
0.313725 0.313260 0.312408 0.315806
0.317647 0.316749 0.315936 0.319376
0.321569 0.320290 0.319497 0.322998
0.325490 0.323883 0.323111 0.326674
0.329412 0.327529 0.326777 0.330403
0.333333 0.331227 0.330496 0.334186
0.337255 0.334978 0.334268 0.338023
0.341176 0.338781 0.338093 0.341914
0.345098 0.342637 0.341970 0.345859
0.349020 0.346546 0.345902 0.349858
0.352941 0.350508 0.349886 0.353911
0.356863 0.354524 0.353924 0.358018
0.360784 0.358592 0.358016 0.362180
0.364706 0.362714 0.362161 0.366397
0.368627 0.366890 0.366360 0.370669
0.372549 0.371119 0.370613 0.374995
0.376471 0.375335 0.374921 0.378542
0.380392 0.378945 0.378506 0.382132
0.384314 0.382600 0.382121 0.385766
0.388235 0.386300 0.385780 0.389446
0.392157 0.390046 0.389485 0.393170
0.396078 0.393836 0.393234 0.396940
0.400000 0.397672 0.397027 0.400754
0.403922 0.401553 0.400866 0.404614
0.407843 0.405480 0.404750 0.408518
0.411765 0.409452 0.408678 0.412468
0.415686 0.413470 0.412652 0.416464
0.419608 0.417534 0.416671 0.420505
0.423529 0.421644 0.420736 0.424592
0.427451 0.425799 0.424846 0.428724
0.431373 0.430000 0.429001 0.432902
0.435294 0.434248 0.433202 0.437125
0.439216 0.438374 0.437449 0.440812
0.443137 0.442015 0.441046 0.444482
0.447059 0.445695 0.444674 0.448192
0.450980 0.449413 0.448339 0.451940
0.454902 0.453171 0.452043 0.455728
0.458824 0.456968 0.455786 0.459555
0.462745 0.460804 0.459568 0.463422
0.466667 0.464679 0.463388 0.467328
0.470588 0.468594 0.467246 0.471274
0.474510 0.472547 0.471144 0.475259
0.478431 0.476541 0.475080 0.479284
0.482353 0.480573 0.479055 0.483349
0.486275 0.484645 0.483069 0.487454
0.490196 0.488757 0.487123 0.491599
0.494118 0.492909 0.491215 0.495783
0.498039 0.497100 0.495346 0.500007
0.501961 0.501203 0.499517 0.503937
0.505882 0.505062 0.503456 0.507903
0.509804 0.508957 0.507396 0.511906
0.513725 0.512888 0.511372 0.515947
0.517647 0.516856 0.515385 0.520024
0.521569 0.520860 0.519435 0.524139
0.525490 0.524900 0.523521 0.528291
0.529412 0.528976 0.527644 0.532481
0.533333 0.533089 0.531804 0.536708
0.537255 0.537238 0.536001 0.540972
0.541176 0.541424 0.540235 0.545274
0.545098 0.545646 0.544506 0.549614
0.549020 0.549905 0.548813 0.553991
0.552941 0.554201 0.553158 0.558406
0.556863 0.558533 0.557540 0.562785
0.560784 0.562829 0.561959 0.566357
0.564706 0.566431 0.565723 0.569960
0.568627 0.570064 0.569422 0.573593
0.572549 0.573727 0.573152 0.577256
0.576471 0.577421 0.576913 0.580949
0.580392 0.581144 0.580704 0.584672
0.584314 0.584898 0.584526 0.588426
0.588235 0.588682 0.588380 0.592210
0.592157 0.592497 0.592264 0.596025
0.596078 0.596342 0.596179 0.599870
0.600000 0.600218 0.600125 0.603745
0.603922 0.604124 0.604102 0.607651
0.607843 0.608060 0.608111 0.611588
0.611765 0.612028 0.612150 0.615555
0.615686 0.616026 0.616221 0.619553
0.619608 0.620054 0.620323 0.623581
0.623529 0.624113 0.624456 0.627402
0.627451 0.627915 0.628216 0.631123
0.631373 0.631665 0.631943 0.634873
0.635294 0.635444 0.635698 0.638650
0.639216 0.639250 0.639481 0.642455
0.643137 0.643085 0.643292 0.646289
0.647059 0.646947 0.647131 0.650150
0.650980 0.650838 0.650998 0.654040
0.654902 0.654757 0.654892 0.657958
0.658824 0.658705 0.658815 0.661905
0.662745 0.662680 0.662767 0.665879
0.666667 0.666684 0.666746 0.669882
0.670588 0.670716 0.670753 0.673913
0.674510 0.674777 0.674789 0.677973
0.678431 0.678866 0.678853 0.682061
0.682353 0.682984 0.682945 0.686178
0.686275 0.687130 0.687066 0.690028
0.690196 0.690836 0.690871 0.693766
0.694118 0.694522 0.694661 0.697530
0.698039 0.698232 0.698478 0.701319
0.701961 0.701968 0.702320 0.705134
0.705882 0.705729 0.706188 0.708974
0.709804 0.709515 0.710082 0.712840
0.713725 0.713326 0.714002 0.716732
0.717647 0.717163 0.717947 0.720650
0.721569 0.721024 0.721919 0.724593
0.725490 0.724911 0.725916 0.728563
0.729412 0.728823 0.729940 0.732558
0.733333 0.732761 0.733990 0.736578
0.737255 0.736724 0.738066 0.740625
0.741176 0.740712 0.742167 0.744698
0.745098 0.744726 0.746295 0.748797
0.749020 0.748765 0.750398 0.752605
0.752941 0.752571 0.754096 0.756305
0.756863 0.756288 0.757818 0.760029
0.760784 0.760028 0.761563 0.763776
0.764706 0.763791 0.765331 0.767547
0.768627 0.767577 0.769123 0.771340
0.772549 0.771387 0.772938 0.775157
0.776471 0.775220 0.776776 0.778998
0.780392 0.779076 0.780637 0.782861
0.784314 0.782955 0.784522 0.786748
0.788235 0.786858 0.788430 0.790659
0.792157 0.790784 0.792362 0.794593
0.796078 0.794734 0.796317 0.798550
0.800000 0.798707 0.800295 0.802531
0.803922 0.802703 0.804297 0.806535
0.807843 0.806723 0.808323 0.810563
0.811765 0.810766 0.812371 0.814497
0.815686 0.814716 0.816206 0.818347
0.819608 0.818601 0.820056 0.822219
0.823529 0.822508 0.823927 0.826113
0.827451 0.826437 0.827821 0.830030
0.831373 0.830389 0.831737 0.833969
0.835294 0.834364 0.835675 0.837930
0.839216 0.838360 0.839635 0.841914
0.843137 0.842380 0.843617 0.845920
0.847059 0.846421 0.847622 0.849948
0.850980 0.850486 0.851650 0.853999
0.854902 0.854572 0.855699 0.858073
0.858824 0.858682 0.859771 0.862169
0.862745 0.862814 0.863865 0.866287
0.866667 0.866968 0.867982 0.870428
0.870588 0.871146 0.872121 0.874591
0.874510 0.875303 0.876135 0.878306
0.878431 0.879002 0.879838 0.881989
0.882353 0.882721 0.883561 0.885692
0.886275 0.886460 0.887303 0.889415
0.890196 0.890219 0.891066 0.893157
0.894118 0.893998 0.894848 0.896920
0.898039 0.897797 0.898651 0.900702
0.901961 0.901616 0.902473 0.904504
0.905882 0.905455 0.906316 0.908326
0.909804 0.909314 0.910178 0.912168
0.913725 0.913192 0.914061 0.916030
0.917647 0.917091 0.917963 0.919912
0.921569 0.921010 0.921886 0.923813
0.925490 0.924949 0.925829 0.927735
0.929412 0.928908 0.929792 0.931677
0.933333 0.932887 0.933775 0.935638
0.937255 0.936887 0.937759 0.939433
0.941176 0.940719 0.941507 0.943080
0.945098 0.944537 0.945275 0.946747
0.949020 0.948375 0.949061 0.950431
0.952941 0.952231 0.952866 0.954134
0.956863 0.956106 0.956690 0.957855
0.960784 0.960001 0.960533 0.961594
0.964706 0.963914 0.964394 0.965352
0.968627 0.967847 0.968275 0.969128
0.972549 0.971799 0.972174 0.972922
0.976471 0.975770 0.976092 0.976735
0.980392 0.979760 0.980029 0.980567
0.984314 0.983770 0.983986 0.984416
0.988235 0.987799 0.987961 0.988285
0.992157 0.991846 0.991955 0.992171
0.996078 0.995914 0.995968 0.996076
1.000000 1.000000 1.000000 1.000000
END_DATA
